;FLAVOR:Marlin
;TIME:14951
;Filament used: 6.74282m
;Layer height: 0.2
;MINX:109.025
;MINY:109.026
;MINZ:0.2
;MAXX:190.954
;MAXY:190.976
;MAXZ:28
;Generated with Cura_SteamEngine 4.4.1
M140 S60
M105
M190 S60
M104 S200
M105
M109 S200
M82 ;absolute extrusion mode
M201 X500.00 Y500.00 Z100.00 E5000.00 ;Setup machine max acceleration
M203 X500.00 Y500.00 Z10.00 E50.00 ;Setup machine max feedrate
M204 P500.00 R1000.00 T500.00 ;Setup Print/Retract/Travel acceleration
M205 X8.00 Y8.00 Z0.40 E5.00 ;Setup Jerk
M220 S100 ;Reset Feedrate
M221 S100 ;Reset Flowrate

G28 ;Home
M420 S1 Z2 ;Enable ABL using saved Mesh and Fade Height

G92 E0 ;Reset Extruder
G1 Z2.0 F3000 ;Move Z Axis up
G1 X10.1 Y20 Z0.28 F5000.0 ;Move to start position
G1 X10.1 Y200.0 Z0.28 F1500.0 E15 ;Draw the first line
G1 X10.4 Y200.0 Z0.28 F5000.0 ;Move to side a little
G1 X10.4 Y20 Z0.28 F1500.0 E30 ;Draw the second line
G92 E0 ;Reset Extruder
G1 Z2.0 F3000 ;Move Z Axis up

G92 E0
G92 E0
G1 F1500 E-6.5
;LAYER_COUNT:140
;LAYER:0
M107
G0 F6000 X120.6 Y121.447 Z0.2
;TYPE:SKIRT
G1 F1500 E0
G1 F1200 X120.725 Y121.324 E0.00583
G1 X122.129 Y119.959 E0.07096
G1 X122.245 Y119.848 E0.0763
G1 X122.766 Y119.356 E0.10014
G1 X123.462 Y118.752 E0.13079
G1 X124.048 Y118.285 E0.15571
G1 X124.179 Y118.182 E0.16125
G1 X125.735 Y116.98 E0.22665
G1 X125.87 Y116.877 E0.2323
G1 X126.43 Y116.458 E0.25556
G1 X127.187 Y115.94 E0.28607
G1 X127.849 Y115.526 E0.31204
G1 X127.995 Y115.436 E0.31774
G1 X129.697 Y114.408 E0.38387
G1 X129.846 Y114.32 E0.38963
G1 X130.414 Y113.989 E0.41149
G1 X131.216 Y113.565 E0.44167
G1 X131.868 Y113.254 E0.46569
G1 X132.028 Y113.179 E0.47157
G1 X133.836 Y112.352 E0.5377
G1 X133.967 Y112.293 E0.54248
G1 X134.628 Y112.001 E0.56651
G1 X135.53 Y111.649 E0.59871
G1 X136.209 Y111.418 E0.62257
G1 X136.348 Y111.372 E0.62744
G1 X138.256 Y110.751 E0.69418
G1 X138.417 Y110.7 E0.69979
G1 X139.088 Y110.493 E0.72315
G1 X139.967 Y110.261 E0.75339
G1 X140.685 Y110.103 E0.77784
G1 X140.859 Y110.066 E0.78375
G1 X142.793 Y109.673 E0.84939
G1 X142.933 Y109.646 E0.85414
G1 X143.629 Y109.514 E0.8777
G1 X144.569 Y109.377 E0.90929
G1 X145.318 Y109.301 E0.93433
G1 X145.483 Y109.286 E0.93984
G1 X147.478 Y109.114 E1.00644
G1 X147.625 Y109.102 E1.01135
G1 X148.285 Y109.054 E1.03336
G1 X149.211 Y109.026 E1.06417
G1 X149.899 Y109.034 E1.08706
G1 X150.074 Y109.037 E1.09288
G1 X152.176 Y109.095 E1.16282
G1 X152.332 Y109.101 E1.16801
G1 X152.955 Y109.127 E1.18875
G1 X153.882 Y109.205 E1.21969
G1 X154.638 Y109.301 E1.24504
G1 X154.813 Y109.324 E1.25091
G1 X156.787 Y109.607 E1.31723
G1 X156.938 Y109.63 E1.32231
G1 X157.617 Y109.737 E1.34518
G1 X158.545 Y109.925 E1.37667
G1 X159.269 Y110.104 E1.40147
G1 X159.419 Y110.142 E1.40662
G1 X161.345 Y110.647 E1.47284
G1 X161.481 Y110.683 E1.47752
G1 X162.137 Y110.864 E1.50016
G1 X163.033 Y111.153 E1.53147
G1 X163.705 Y111.402 E1.55531
G1 X163.869 Y111.465 E1.56115
G1 X165.757 Y112.199 E1.62852
G1 X165.923 Y112.265 E1.63446
G1 X166.556 Y112.523 E1.6572
G1 X167.36 Y112.889 E1.68658
G1 X167.996 Y113.21 E1.71028
G1 X168.17 Y113.299 E1.71678
G1 X169.991 Y114.259 E1.78524
G1 X170.126 Y114.332 E1.79035
G1 X170.68 Y114.634 E1.81134
G1 X171.463 Y115.104 E1.84171
G1 X172.092 Y115.518 E1.86675
G1 X172.244 Y115.62 E1.87284
G1 X173.878 Y116.735 E1.93864
G1 X174.01 Y116.826 E1.94397
G1 X174.601 Y117.242 E1.96801
G1 X175.343 Y117.813 E1.99915
G1 X175.911 Y118.29 E2.02382
G1 X176.038 Y118.399 E2.02939
G1 X177.508 Y119.672 E2.09406
G1 X177.619 Y119.769 E2.09897
G1 X178.172 Y120.261 E2.12358
G1 X178.857 Y120.926 E2.15534
G1 X179.367 Y121.466 E2.18004
G1 X179.47 Y121.576 E2.18505
G1 X180.773 Y122.994 E2.2491
G1 X180.878 Y123.111 E2.25433
G1 X181.378 Y123.671 E2.2793
G1 X181.964 Y124.385 E2.31002
G1 X182.413 Y124.982 E2.33487
G1 X182.517 Y125.123 E2.3407
G1 X183.678 Y126.719 E2.40634
G1 X183.765 Y126.84 E2.4113
G1 X184.168 Y127.41 E2.43451
G1 X184.679 Y128.203 E2.46589
G1 X185.056 Y128.847 E2.49071
G1 X185.137 Y128.987 E2.49609
G1 X186.126 Y130.735 E2.56289
G1 X186.203 Y130.874 E2.56818
G1 X186.524 Y131.461 E2.59043
G1 X186.943 Y132.312 E2.62198
G1 X187.245 Y132.999 E2.64694
G1 X187.305 Y133.14 E2.65203
G1 X188.081 Y134.974 E2.71827
G1 X188.14 Y135.114 E2.72332
G1 X188.398 Y135.748 E2.74609
G1 X188.713 Y136.63 E2.77724
G1 X188.938 Y137.354 E2.80245
G1 X188.987 Y137.514 E2.80802
G1 X189.543 Y139.404 E2.87355
G1 X189.583 Y139.542 E2.87832
G1 X189.772 Y140.217 E2.90164
G1 X189.991 Y141.157 E2.93374
G1 X190.122 Y141.856 E2.95739
G1 X190.147 Y141.996 E2.96212
G1 X190.499 Y144.019 E3.03042
G1 X190.526 Y144.182 E3.03591
G1 X190.628 Y144.825 E3.05757
G1 X190.734 Y145.732 E3.08794
G1 X190.786 Y146.431 E3.11125
G1 X190.798 Y146.613 E3.11732
G1 X190.917 Y148.675 E3.18602
G1 X190.925 Y148.836 E3.19138
G1 X190.953 Y149.486 E3.21302
G1 X190.954 Y150.403 E3.24352
G1 X190.923 Y151.171 E3.26908
G1 X190.915 Y151.344 E3.27484
G1 X190.803 Y153.339 E3.3413
G1 X190.793 Y153.485 E3.34617
G1 X190.748 Y154.132 E3.36774
G1 X190.645 Y155.053 E3.39856
G1 X190.533 Y155.776 E3.4229
G1 X190.503 Y155.962 E3.42916
G1 X190.158 Y157.962 E3.49667
G1 X190.133 Y158.098 E3.50126
G1 X190.01 Y158.761 E3.52369
G1 X189.794 Y159.697 E3.55564
G1 X189.59 Y160.432 E3.58101
G1 X189.548 Y160.58 E3.58613
G1 X189.001 Y162.449 E3.6509
G1 X188.959 Y162.591 E3.65583
G1 X188.746 Y163.284 E3.67994
G1 X188.425 Y164.185 E3.71175
G1 X188.144 Y164.878 E3.73662
G1 X188.084 Y165.023 E3.74184
G1 X187.298 Y166.885 E3.80906
G1 X187.231 Y167.04 E3.81468
G1 X186.969 Y167.635 E3.8363
G1 X186.565 Y168.458 E3.8668
G1 X186.206 Y169.118 E3.89179
G1 X186.124 Y169.266 E3.89741
G1 X185.173 Y170.952 E3.9618
G1 X185.091 Y171.094 E3.96725
G1 X184.715 Y171.738 E3.99205
G1 X184.216 Y172.517 E4.02282
G1 X183.781 Y173.136 E4.04799
G1 X183.684 Y173.271 E4.05352
G1 X182.513 Y174.885 E4.11984
G1 X182.422 Y175.009 E4.12495
G1 X182.026 Y175.539 E4.14696
G1 X181.432 Y176.267 E4.17821
G1 X180.932 Y176.829 E4.20323
G1 X180.825 Y176.947 E4.20853
G1 X179.493 Y178.401 E4.27411
G1 X179.391 Y178.511 E4.2791
G1 X178.908 Y179.024 E4.30254
G1 X178.219 Y179.694 E4.3345
G1 X177.647 Y180.204 E4.35999
G1 X177.535 Y180.304 E4.36498
G1 X176.087 Y181.56 E4.42874
G1 X175.974 Y181.656 E4.43367
G1 X175.403 Y182.138 E4.45852
G1 X174.645 Y182.723 E4.49037
G1 X174.015 Y183.167 E4.516
G1 X173.891 Y183.253 E4.52102
G1 X172.262 Y184.368 E4.58668
G1 X172.128 Y184.459 E4.59207
G1 X171.564 Y184.833 E4.61457
G1 X170.769 Y185.313 E4.64546
G1 X170.161 Y185.646 E4.66852
G1 X170.022 Y185.72 E4.67376
G1 X168.208 Y186.68 E4.74202
G1 X168.047 Y186.764 E4.74806
G1 X167.445 Y187.07 E4.77052
G1 X166.628 Y187.444 E4.8004
G1 X165.922 Y187.733 E4.82578
G1 X165.754 Y187.8 E4.83179
G1 X163.927 Y188.513 E4.89702
G1 X163.771 Y188.573 E4.90258
G1 X163.13 Y188.812 E4.92534
G1 X162.266 Y189.094 E4.95556
G1 X161.491 Y189.312 E4.98234
G1 X161.314 Y189.36 E4.98844
G1 X159.484 Y189.842 E5.05138
G1 X159.326 Y189.883 E5.05681
G1 X158.595 Y190.064 E5.08186
G1 X157.679 Y190.249 E5.11294
G1 X156.956 Y190.364 E5.13729
G1 X156.804 Y190.387 E5.1424
G1 X154.87 Y190.667 E5.2074
G1 X154.708 Y190.69 E5.21284
G1 X153.975 Y190.785 E5.23742
G1 X153.042 Y190.865 E5.26857
G1 X152.311 Y190.897 E5.29291
G1 X152.155 Y190.903 E5.2981
G1 X150.157 Y190.962 E5.36458
G1 X149.993 Y190.966 E5.37004
G1 X149.31 Y190.976 E5.39276
G1 X148.377 Y190.95 E5.4238
G1 X147.638 Y190.898 E5.44844
G1 X147.481 Y190.886 E5.45368
G1 X145.464 Y190.715 E5.521
G1 X145.298 Y190.699 E5.52655
G1 X144.648 Y190.634 E5.54828
G1 X143.727 Y190.503 E5.57922
G1 X142.992 Y190.366 E5.60409
G1 X142.83 Y190.334 E5.60958
G1 X140.899 Y189.944 E5.6751
G1 X140.742 Y189.911 E5.68044
G1 X140.056 Y189.762 E5.70378
G1 X139.171 Y189.531 E5.73421
G1 X138.449 Y189.31 E5.75932
G1 X138.28 Y189.257 E5.76521
G1 X136.378 Y188.641 E5.83171
G1 X136.225 Y188.59 E5.83707
G1 X135.581 Y188.371 E5.85969
G1 X134.701 Y188.029 E5.8911
G1 X134.02 Y187.73 E5.91583
G1 X133.877 Y187.666 E5.92104
G1 X132.099 Y186.855 E5.98604
G1 X131.956 Y186.788 E5.99129
G1 X131.293 Y186.474 E6.01569
G1 X130.466 Y186.039 E6.04677
G1 X129.81 Y185.657 E6.07202
G1 X129.673 Y185.576 E6.07732
G1 X128.013 Y184.577 E6.14175
G1 X127.881 Y184.496 E6.14691
G1 X127.266 Y184.114 E6.17098
G1 X126.482 Y183.579 E6.20255
G1 X125.899 Y183.143 E6.22677
G1 X125.772 Y183.046 E6.23208
G1 X124.184 Y181.822 E6.29877
G1 X124.047 Y181.715 E6.30455
G1 X123.502 Y181.281 E6.32772
G1 X122.83 Y180.7 E6.35727
G1 X122.317 Y180.219 E6.38066
G1 X122.182 Y180.091 E6.38685
G1 X120.716 Y178.669 E6.45477
G1 X120.597 Y178.551 E6.46035
G1 X120.127 Y178.081 E6.48246
G1 X119.499 Y177.398 E6.51332
G1 X119.001 Y176.808 E6.53899
G1 X118.894 Y176.68 E6.54454
G1 X117.677 Y175.193 E6.60845
G1 X117.575 Y175.065 E6.6139
G1 X117.113 Y174.483 E6.63861
G1 X116.571 Y173.739 E6.66923
G1 X116.155 Y173.114 E6.6942
G1 X116.061 Y172.97 E6.69992
G1 X114.986 Y171.299 E6.766
G1 X114.902 Y171.166 E6.77124
G1 X114.548 Y170.598 E6.7935
G1 X114.091 Y169.792 E6.82431
G1 X113.725 Y169.077 E6.85103
G1 X113.646 Y168.919 E6.8569
G1 X112.788 Y167.174 E6.92158
G1 X112.718 Y167.029 E6.92694
G1 X112.421 Y166.402 E6.95001
G1 X112.056 Y165.539 E6.98118
G1 X111.797 Y164.845 E7.00581
G1 X111.747 Y164.707 E7.0107
G1 X111.072 Y162.822 E7.07729
G1 X111.016 Y162.661 E7.08296
G1 X110.799 Y162.024 E7.10534
G1 X110.534 Y161.124 E7.13655
G1 X110.355 Y160.402 E7.16129
G1 X110.32 Y160.257 E7.16625
G1 X109.871 Y158.335 E7.2319
G1 X109.842 Y158.206 E7.23629
G1 X109.69 Y157.518 E7.25973
G1 X109.521 Y156.552 E7.29234
G1 X109.424 Y155.8 E7.31756
G1 X109.406 Y155.652 E7.32252
G1 X109.183 Y153.716 E7.38734
G1 X109.168 Y153.572 E7.39216
G1 X109.094 Y152.846 E7.41643
G1 X109.038 Y151.901 E7.44791
G1 X109.027 Y151.189 E7.4716
G1 X109.026 Y151.024 E7.47709
G1 X109.025 Y149.024 E7.54361
G1 X109.026 Y148.88 E7.54839
G1 X109.035 Y148.167 E7.57211
G1 X109.088 Y147.218 E7.60372
G1 X109.159 Y146.504 E7.62759
G1 X109.176 Y146.342 E7.63301
G1 X109.408 Y144.314 E7.7009
G1 X109.428 Y144.154 E7.70626
G1 X109.512 Y143.504 E7.72806
G1 X109.67 Y142.586 E7.75904
G1 X109.832 Y141.838 E7.7845
G1 X109.868 Y141.679 E7.78992
G1 X110.296 Y139.835 E7.85288
G1 X110.333 Y139.68 E7.85818
G1 X110.523 Y138.912 E7.8845
G1 X110.779 Y138.035 E7.91488
G1 X110.986 Y137.422 E7.9364
G1 X111.047 Y137.247 E7.94257
G1 X111.758 Y135.253 E8.01298
G1 X111.804 Y135.126 E8.01747
G1 X112.017 Y134.551 E8.03786
G1 X112.379 Y133.688 E8.06899
G1 X112.7 Y133.006 E8.09406
G1 X112.778 Y132.844 E8.10004
G1 X113.648 Y131.071 E8.16573
G1 X113.722 Y130.923 E8.17123
G1 X114.044 Y130.291 E8.19482
G1 X114.499 Y129.484 E8.22564
G1 X114.918 Y128.809 E8.25206
G1 X115.006 Y128.67 E8.25753
G1 X116.066 Y127.018 E8.32282
G1 X116.151 Y126.887 E8.32801
G1 X116.521 Y126.328 E8.35031
G1 X117.077 Y125.561 E8.38181
G1 X117.546 Y124.97 E8.40691
G1 X117.644 Y124.849 E8.41209
G1 X118.893 Y123.32 E8.47775
G1 X118.993 Y123.2 E8.48295
G1 X119.442 Y122.666 E8.50615
G1 X120.068 Y121.981 E8.53702
G1 X120.6 Y121.447 E8.56209
G0 F6000 X120.884 Y121.73
G1 F1200 X121.004 Y121.611 E8.56771
G1 X122.408 Y120.246 E8.63284
G1 X122.519 Y120.139 E8.63797
G1 X123.04 Y119.647 E8.6618
G1 X123.712 Y119.064 E8.69139
G1 X124.298 Y118.597 E8.71631
G1 X124.424 Y118.498 E8.72164
G1 X125.98 Y117.296 E8.78704
G1 X126.11 Y117.198 E8.79245
G1 X126.67 Y116.779 E8.81571
G1 X127.4 Y116.279 E8.84514
G1 X128.062 Y115.865 E8.87111
G1 X128.202 Y115.779 E8.87658
G1 X129.904 Y114.751 E8.94271
G1 X130.047 Y114.666 E8.94824
G1 X130.615 Y114.335 E8.97011
G1 X131.388 Y113.926 E8.9992
G1 X132.04 Y113.615 E9.02322
G1 X132.195 Y113.543 E9.02891
G1 X134.003 Y112.716 E9.09503
G1 X134.129 Y112.659 E9.09963
G1 X134.79 Y112.367 E9.12367
G1 X135.659 Y112.028 E9.15469
G1 X136.338 Y111.797 E9.17855
G1 X136.471 Y111.752 E9.18322
G1 X138.379 Y111.131 E9.24995
G1 X138.535 Y111.082 E9.25539
G1 X139.206 Y110.875 E9.27875
G1 X140.053 Y110.652 E9.30788
G1 X140.771 Y110.494 E9.33233
G1 X140.938 Y110.458 E9.33801
G1 X142.872 Y110.065 E9.40365
G1 X143.008 Y110.039 E9.40826
G1 X143.704 Y109.907 E9.43182
G1 X144.609 Y109.775 E9.46224
G1 X145.358 Y109.699 E9.48728
G1 X145.517 Y109.684 E9.49259
G1 X147.512 Y109.512 E9.55919
G1 X147.654 Y109.501 E9.56393
G1 X148.314 Y109.453 E9.58594
G1 X149.206 Y109.426 E9.61562
G1 X149.894 Y109.434 E9.6385
G1 X150.063 Y109.437 E9.64413
G1 X152.165 Y109.495 E9.71407
G1 X152.315 Y109.5 E9.71906
G1 X152.938 Y109.526 E9.7398
G1 X153.831 Y109.601 E9.7696
G1 X154.587 Y109.697 E9.79495
G1 X154.756 Y109.72 E9.80062
G1 X156.73 Y110.003 E9.86695
G1 X156.876 Y110.025 E9.87186
G1 X157.555 Y110.132 E9.89472
G1 X158.449 Y110.313 E9.92506
G1 X159.173 Y110.492 E9.94986
G1 X159.317 Y110.529 E9.95481
G1 X161.243 Y111.034 E10.02103
G1 X161.374 Y111.069 E10.02554
G1 X162.03 Y111.25 E10.04818
G1 X162.894 Y111.528 E10.07837
G1 X163.566 Y111.777 E10.1022
G1 X163.724 Y111.837 E10.10782
G1 X165.612 Y112.571 E10.1752
G1 X165.772 Y112.635 E10.18093
G1 X166.405 Y112.893 E10.20366
G1 X167.18 Y113.246 E10.23199
G1 X167.816 Y113.567 E10.25568
G1 X167.983 Y113.653 E10.26193
G1 X169.804 Y114.613 E10.3304
G1 X169.934 Y114.683 E10.33531
G1 X170.488 Y114.985 E10.35629
G1 X171.243 Y115.438 E10.38558
G1 X171.872 Y115.852 E10.41063
G1 X172.019 Y115.95 E10.4165
G1 X173.653 Y117.065 E10.4823
G1 X173.779 Y117.153 E10.48741
G1 X174.37 Y117.569 E10.51145
G1 X175.086 Y118.12 E10.54149
G1 X175.654 Y118.597 E10.56616
G1 X175.776 Y118.701 E10.5715
G1 X177.246 Y119.974 E10.63617
G1 X177.353 Y120.068 E10.64091
G1 X177.906 Y120.56 E10.66553
G1 X178.566 Y121.201 E10.69613
G1 X179.076 Y121.741 E10.72083
G1 X179.175 Y121.847 E10.72566
G1 X180.478 Y123.265 E10.78971
G1 X180.58 Y123.377 E10.79475
G1 X181.08 Y123.937 E10.81972
G1 X181.644 Y124.626 E10.84933
G1 X182.093 Y125.223 E10.87418
G1 X182.194 Y125.358 E10.87979
G1 X183.355 Y126.954 E10.94543
G1 X183.438 Y127.071 E10.9502
G1 X183.841 Y127.641 E10.97342
G1 X184.334 Y128.405 E11.00366
G1 X184.711 Y129.049 E11.02848
G1 X184.789 Y129.184 E11.03367
G1 X185.778 Y130.932 E11.10046
G1 X185.852 Y131.066 E11.10556
G1 X186.173 Y131.653 E11.12781
G1 X186.577 Y132.473 E11.15821
G1 X186.879 Y133.16 E11.18317
G1 X186.937 Y133.295 E11.18806
G1 X187.713 Y135.129 E11.25429
G1 X187.769 Y135.265 E11.25919
G1 X188.027 Y135.899 E11.28195
G1 X188.331 Y136.748 E11.31194
G1 X188.556 Y137.472 E11.33716
G1 X188.603 Y137.626 E11.34252
G1 X189.159 Y139.516 E11.40804
G1 X189.197 Y139.65 E11.41267
G1 X189.386 Y140.325 E11.43599
G1 X189.598 Y141.23 E11.4669
G1 X189.729 Y141.929 E11.49056
G1 X189.753 Y142.065 E11.49515
G1 X190.105 Y144.088 E11.56345
G1 X190.131 Y144.244 E11.56871
G1 X190.233 Y144.887 E11.59036
G1 X190.335 Y145.762 E11.61966
G1 X190.387 Y146.461 E11.64297
G1 X190.398 Y146.636 E11.64881
G1 X190.517 Y148.698 E11.7175
G1 X190.525 Y148.853 E11.72266
G1 X190.553 Y149.503 E11.7443
G1 X190.554 Y150.387 E11.77371
G1 X190.523 Y151.155 E11.79927
G1 X190.515 Y151.321 E11.8048
G1 X190.403 Y153.316 E11.87126
G1 X190.394 Y153.457 E11.87596
G1 X190.349 Y154.104 E11.89753
G1 X190.25 Y154.992 E11.92724
G1 X190.138 Y155.715 E11.95158
G1 X190.109 Y155.894 E11.95761
G1 X189.764 Y157.894 E12.02511
G1 X189.74 Y158.026 E12.02957
G1 X189.617 Y158.689 E12.052
G1 X189.409 Y159.59 E12.08276
G1 X189.205 Y160.325 E12.10813
G1 X189.164 Y160.467 E12.11304
G1 X188.617 Y162.336 E12.17781
G1 X188.576 Y162.473 E12.18257
G1 X188.363 Y163.166 E12.20668
G1 X188.054 Y164.035 E12.23736
G1 X187.773 Y164.728 E12.26223
G1 X187.716 Y164.867 E12.26723
G1 X186.93 Y166.729 E12.33445
G1 X186.865 Y166.879 E12.33989
G1 X186.603 Y167.474 E12.36151
G1 X186.214 Y168.267 E12.39089
G1 X185.855 Y168.927 E12.41588
G1 X185.776 Y169.07 E12.42131
G1 X184.825 Y170.756 E12.48569
G1 X184.746 Y170.893 E12.49095
G1 X184.37 Y171.537 E12.51576
G1 X183.889 Y172.287 E12.54539
G1 X183.454 Y172.906 E12.57056
G1 X183.361 Y173.036 E12.57587
G1 X182.19 Y174.65 E12.64219
G1 X182.102 Y174.77 E12.64714
G1 X181.706 Y175.3 E12.66915
G1 X181.133 Y176.001 E12.69926
G1 X180.633 Y176.563 E12.72428
G1 X180.53 Y176.677 E12.72939
G1 X179.198 Y178.131 E12.79498
G1 X179.1 Y178.237 E12.79978
G1 X178.617 Y178.75 E12.82321
G1 X177.953 Y179.396 E12.85402
G1 X177.381 Y179.906 E12.87951
